!!!!SEGMENT: pl-kk--kk-i-6--064-009_lilius-franciszek--missa-pro-defunctis-lux-aeterna.krn
!!!cenid: 16xx:1068
!!!COM: Lilius, Franciszek
!!!COM-rismid: pe30020509
!!!CDT: ~1600-1657
!!!CNT: Polish
!!!OPR: Missa pro defunctis
!!!OTL: Lux aeterna
!!!OMV: 009
!!!PDT:
!!!AGN:
!!!SMS-siglum: PL-Kk
!!!SMS-shelfmark: Kk.I.6
!!!SMS-shelfwork: 064-009 M
!!!SMS-variant:
!!!SMS-altvar:
!!!NIFC-rismid: 1001136594
!!!URL-scan: http://repozytorium.nifc.pl/skany/pl-kk-nut--i-6
!!!ONB-nifc: UWAGA: C (skan 0088-0092), T (skan 0200-0206), B (skan 0313-0319) Części Mszy: 1. Requiem aeternam, 2. Kyrie, 3. Requiem aeternam, 4. Absolve Domine, 5. Dies irae, 6. Domine Jesu Christe, 7. Sanctus, 8. Agnus Dei, 9. Lux aeterna
**kern	**text	**kern	**text	**kern	**text
*part3	*part3	*part2	*part2	*part1	*part1
*staff3	*staff3	*staff2	*staff2	*staff1	*staff1
*I"Basso	*	*I"Tenore	*	*I"Canto	*
*I'B	*	*I'T	*	*I'C	*
*Ibass	*	*Itenor	*	*Isoprn	*
*ICvox	*	*ICvox	*	*ICvox	*
*clefF4	*	*clefC4	*	*clefC4	*
*k[]	*	*k[]	*	*k[]	*
*C:	*	*C:	*	*C:	*
*M2/1	*	*M2/1	*	*	*
*met(C)	*	*met(C)	*	*	*
=1-	=1-	=1-	=1-	=1-	=1-
1AA	Lux	1c	Lux	1A	Lux
*lig	*	*	*	*lig	*
1E	ae-	2B\	ae-	1G	ae-
.	.	2G/	.	.	.
=2-	=2-	=2-	=2-	=2-	=2-
1F	.	2.A\	-ter-	1F	.
.	.	4B\	.	.	.
*Xlig	*	*	*	*Xlig	*
*	*	*	*	*lig	*
2.C/	-ter-	0c	.	1G	-ter-
4BB/	.	.	.	.	.
=3-	=3-	=3-	=3-	=3-	=3-
4AA/	.	.	.	1A	.
4GG/	.	.	.	.	.
2FF/	.	.	.	.	.
*	*	*	*	*Xlig	*
2C/	-na	0c	-na	1G	-na
2.C/	lu-	.	.	.	.
=4-	=4-	=4-	=4-	=4-	=4-
.	.	.	.	1G	lu-
4D/	-ce-	.	.	.	.
2E\	-at	.	.	.	.
2.F\	e-	2r	.	1A	-ce-
.	.	2.A/	lu-	.	.
4G\	.	.	.	.	.
=5-	=5-	=5-	=5-	=5-	=5-
1A	.	.	.	1c	-at
.	.	4B\	-ce-	.	.
!	!	!LO:SIC:v:l:s=-at	!	!	!
.	.	2c\	-a	.	.
*	*	*	*	*lig	*
1G	.	1d	e-	1B	e-
=6-	=6-	=6-	=6-	=6-	=6-
2C/	-is	1c	-is	1c	.
2.F\	Do-	.	.	.	.
*	*	*	*	*Xlig	*
.	.	1r	.	1A	-is
4E\	.	.	.	.	.
2D/	.	.	.	.	.
=7-	=7-	=7-	=7-	=7-	=7-
2C/	.	2r	.	1A	Do-
*	*	*	*ij	*	*
2AA/	.	2.c\	lu-	.	.
*lig	*	*	*	*	*
1C	.	.	.	1G	-mi-
.	.	4d\	-ce-	.	.
.	.	2e\	-at	.	.
=8-	=8-	=8-	=8-	=8-	=8-
*	*	*	*	*lig	*
1D	.	2d\	e-	1F	-ne
.	.	2A/	-is	.	.
*Xlig	*	*	*Xij	*	*
*custos:C	*	*	*	*	*
!LO:LB:g=original	!	!	!	!	!
2.C/	.	2.c\	Do-	1G	.
4C/	-mi-	4c\	-mi-	.	.
*	*	*	*	*Xlig	*
=9-	=9-	=9-	=9-	=9-	=9-
2FF/	-ne	2c\	-ne	1A	cum
2F\	cum	2A/	cum	.	.
*	*	*custos:G	*	*	*
!	!	!LO:PB:g=original	!	!	!
2E\	ſan-	2G/	ſan-	1c	ſan-
2F\	-ctis	2A/	-ctis	.	.
=10-	=10-	=10-	=10-	=10-	=10-
1D	tu-	1F	tu-	1B	-ctis
2C/	is	2G/	.	1c	tu-
2.F\	in	2.A/	.	.	.
=11-	=11-	=11-	=11-	=11-	=11-
.	.	.	.	1A	-is
4E\	ae-	4G/	.	.	.
2D/	-ter-	2F/	.	.	.
2AA/	-num	1E	-is	1c	in
4r	.	.	.	.	.
*	*ij	*	*	*	*
4C/	cum	.	.	.	.
*	*	*	*	*custos:G	*
!	!	!	!	!LO:LB:g=original	!
=12-	=12-	=12-	=12-	=12-	=12-
2BB/	san-	1r	.	1G	ae-
2C/	-ctis	.	.	.	.
4AA/	tu-	2r	.	1A	-ter-
4BB/	-is	.	.	.	.
4C/	in	2c\	cum	.	.
4AA/	ae-	.	.	.	.
=13-	=13-	=13-	=13-	=13-	=13-
*	*	*	*	*lig	*
2E\	-ter-	2B\	ſan-	1G	.
2E\	-num	2c\	-ctis	.	.
*	*Xij	*	*	*	*
1D	qui-	2A\	tu-	1A	.
.	.	2d\	-is	.	.
*	*	*	*	*Xlig	*
=14-	=14-	=14-	=14-	=14-	=14-
1GG	-a	4B\	in	1G	-num
.	.	4B\	ae-	.	.
.	.	2.G/	-ter-	.	.
1C	pi-	.	.	1E	qui-
.	.	4G/	-num	.	.
.	.	1A\	qui-	.	.
=15-	=15-	=15-	=15-	=15-	=15-
1D	.	.	.	1F	-a
.	.	2.B\	-a	.	.
*lig	*	*	*	*lig	*
1E	.	.	.	1G	pi-
.	.	4A/	.	.	.
.	.	1G/	pi-	.	.
=16-	=16-	=16-	=16-	=16-	=16-
1.D	.	.	.	1A	.
!	!	!LO:TX:b:t=P:problem:# below	!	!	!
.	.	4F#X/	.	.	.
.	.	4E/	.	.	.
*Xlig	*	*	*	*Xlig	*
!	!	!LO:TX:b:t=P:problem:# below	!	!	!
.	.	2F#X/	.	1A	-us
!	!	!LO:TX:b:t=P:problem:# below	!	!	!
2D/	-us	2F#X/	-us	.	.
=17-	=17-	=17-	=17-	=17-	=17-
0GG;	es	0G;	es	0G;	es
!LO:LB:g=original	!	!LO:LB:g=original	!	!LO:LB:g=original	!
=18||-	=18||-	=18||-	=18||-	=18||-	=18||-
*M2/1	*	*	*	*M2/1	*
*met(C)	*	*	*	*met(C)	*
0r	.	0r	.	1G	Re-
.	.	.	.	1A	-qui-
=19-	=19-	=19-	=19-	=19-	=19-
*lig	*	*	*	*	*
1C	Re-	1r	.	1c	-em
*col	*	*lig	*	*	*
2.E\	.	1G	Re-	1c	ae-
*Xlig	*	*	*	*	*
4E\	-qui-	.	.	.	.
*Xcol	*	*	*	*	*
=20-	=20-	=20-	=20-	=20-	=20-
*	*	*col	*	*	*
2F\	-em	2.A\	.	1c	-ter-
2F\	ae-	.	.	.	.
*	*	*Xlig	*	*	*
.	.	4A/	-qui-	.	.
*	*	*Xcol	*	*	*
2A\	-ter-	2c\	-em	1c	-nam
2F\	.	2A/	ae-	.	.
=21-	=21-	=21-	=21-	=21-	=21-
2E\	.	2G/	-ter-	1c	do-
2F\	.	2A/	.	.	.
1C	-nam	1G	.	1c	-na
=22-	=22-	=22-	=22-	=22-	=22-
2.FF/	do-	1A	-nam	1c	e-
4GG/	-na	.	.	.	.
2AA/	e-	2.A/	do-	1c	-is
2AA/	-is	.	.	.	.
.	.	4A/	-na	.	.
=23-	=23-	=23-	=23-	=23-	=23-
1.D	Do-	1A	e-	1d	Do-
.	.	2A/	-is	1A	-mi-
2D/	-mi-	2.d\	Do-	.	.
=24-	=24-	=24-	=24-	=24-	=24-
1AA	-ne	.	.	1A	-ne
.	.	4d\	-mi-	.	.
!	!	!LO:TX:a:t=P:problem:# above	!	!	!
.	.	2c#X\	.	.	.
2r	.	1.A	.	1c	et
2F\	et	.	.	.	.
=25-	=25-	=25-	=25-	=25-	=25-
2A\	lux	.	.	1c	lux
2E\	per-	2G/	-ne	.	.
2F\	-pe-	2r	.	1c	per-
2C/	.	2G/	et	.	.
*custos:AA	*	*	*	*	*
!LO:LB:g=original	!	!	!	!	!
=26-	=26-	=26-	=26-	=26-	=26-
2AA/	.	2A/	lux	1c	-pe-
2C/	.	2E/	per-	.	.
2.FF/	.	2.Fny/	-pe-	1c	-tu-
4FF/	-tu-	4F/	-tu-	.	.
*	*	*custos:E	*	*custos:c	*
!	!	!LO:LB:g=original	!	!LO:LB:g=original	!
=27-	=27-	=27-	=27-	=27-	=27-
2C/	-a	2E/	-a	1c	-a
4r	.	2A/	lu-	.	.
4F\	lu-	.	.	.	.
2E\	-ce-	2G/	-ce-	1c	lu-
2F\	-at	2A/	-at	.	.
=28-	=28-	=28-	=28-	=28-	=28-
1D	e-	1F	e-	1B	-ce-
1C	-is	1G	-is	1c	-at
=29-	=29-	=29-	=29-	=29-	=29-
2D\	cum	2r	.	1A	e-
1F\	ſan-	2A/	cum	.	.
.	.	2.cny\	ſan-	1G	-is
2E\	-ctis	.	.	.	.
.	.	4B\	-ctis	.	.
=30-	=30-	=30-	=30-	=30-	=30-
2F\	tu-	2A/	tu-	1A	cum
2D\	-is	2F/	.	.	.
1C	in	1G	-is	1c	ſan-
=31-	=31-	=31-	=31-	=31-	=31-
1GG	ae-	1r	.	1B	-ctis
4C/	-ter-	2E/	cum	1c	tu-
4D/	.	.	.	.	.
4E/	.	1G/	ſan-	.	.
4C/	.	.	.	.	.
=32-	=32-	=32-	=32-	=32-	=32-
1D	.	.	.	1A	-is
!	!	!LO:TX:b:t=P:problem:# below	!	!	!
.	.	2F#X/	-ctis	.	.
2C/	-num	2G/	tu-	1c	in
4r	.	2A/	-is	.	.
4AA/	cum	.	.	.	.
=33-	=33-	=33-	=33-	=33-	=33-
2C/	ſan-	2E/	in	1G	ae-
*custos:BB	*	*	*	*	*
!LO:LB:g=original	!	!	!	!	!
2BB/	-ctis	1G/	ae-	.	.
2C/	tu-	.	.	1A	-ter-
!	!	!LO:TX:b:t=P:problem:# below	!	!	!
2D/	-is	2F#X/	.	.	.
=34-	=34-	=34-	=34-	=34-	=34-
*	*	*	*	*lig	*
2.E\	in	4G/	-ter-	1G	.
.	.	4A/	.	.	.
.	.	4B\	.	.	.
4E\	ae-	4c\	.	.	.
1D	-ter-	1d	.	1A	.
*	*	*	*	*Xlig	*
=35-	=35-	=35-	=35-	=35-	=35-
1GG	-num	2B\	-num	1G	-num
*	*	*custos:G	*	*	*
!	!	!LO:LB:g=original	!	!	!
.	.	1G/	qui-	.	.
1C	qui-	.	.	1E	qui-
.	.	1A\	.	.	.
=36-	=36-	=36-	=36-	=36-	=36-
1D	-a	.	.	1F	-a
.	.	2B\	-a	.	.
*	*	*	*	*lig	*
2.C/	pi-	0c	pi-	1G	pi-
4BB/	.	.	.	.	.
=37-	=37-	=37-	=37-	=37-	=37-
4AA/	.	.	.	1A	.
4GG/	.	.	.	.	.
1FF/	.	.	.	.	.
*	*	*	*	*Xlig	*
*	*	*	*	*custos:A	*
!	!	!	!	!LO:LB:g=original	!
.	.	1c	-us	1A	-us
2FF/	-us	.	.	.	.
=38-	=38-	=38-	=38-	=38-	=38-
1C	es	1c	es	[>0G	es
2r	.	2r	.	.	.
*	*ij	*	*	*	*
1C/	qui-	1e\	qui-	.	.
=39-	=39-	=39-	=39-	=39-	=39-
.	.	.	.	0G]	.
2BB/	-a	2d\	-a	.	.
1.C	pi-	1.c	pi-	.	.
=40-	=40-	=40-	=40-	=40-	=40-
.	.	.	.	1G	.
2C/	-us	2c\	-us	.	.
0GG;	es	0B;<	es	0G;	.
*	*Xij	*	*	*	*
==	==	==	==	==	==
*-	*-	*-	*-	*-	*-
!!!system-decoration: [(s1,s2,s3)]
!!!RDF**kern: > = above
!!!RDF**kern: < = below
!!!AIN: 1 bass 1 soprn 1 tenor
!!!ENC: Andrzej Gręziak
!!!END: 2021-10-26
!!!ENC: Marta Lawrence
!!!END: 2021-12-27
